X: 38709
T: Strayaway Child, The
R: jig
M: 6/8
K: Eminor
A|"Em"BEE GEE|B,EE G2A|BEE A2G|"D"FDF Adc|
"Em"BEE GEE|B,EE G2A|"Bm"BdB B2A|"Em"GEE E2:|
A|"Em"Bee BdB|dBG AGA|Bee BdB|"D"dBG A2A|
"Em"Bee BdB|dBG AGA|"Bm"BdB B2A|"Em"GEE E2A|
"Em"Bee BdB|dBG AGA|Bee BdB|"D"dBG A2f|
"CMaj7"gfe dcB|AGA BGE|"Bm"AGE DB,D|"Em"~E3 E2||
|:D|"Am"EAG EDE|"Em"~G3 BAG|"Bm"AGE DB,D|"Em"EFE E2D|
"Am"EAG EDE|"Em"~G3 BAG|"Bm"AGE DB,D|"Em"~E3 E2:|
|:B|"Em"efe ded|cBA BGE|GAB dBB|"D"AGE D2c|
"CMaj7"BAG EDE|GAB cBA|"Bm"BAG EAG|"Em"~E3 E2:|
|:A|"Em"Bee efg|"D"fdf edA|"Em"Bee efg|"D"fdf e2f|
"CMaj7"gfe dcB|AGA BGE|"Bm"AGE DB,D|"Em"~E3 E2:|
|:B|"Em"edB edB|"D"AGA BGE|"Em"edB edB|"D"AGA B3|
"Em"edB gfe|"D"dcB AGA|"Bm"BAG EAG|"Em"~E3E2:|

